Flat-Remix-Dark/status/scalable/battery-ac-adapter.svg

<svg xmlns="http://www.w3.org/2000/svg" xmlns:xlink="http://www.w3.org/1999/xlink" width="36pt" height="36pt" version="1.1" viewBox="0 0 36 36">
 <defs>
  <filter id="alpha" width="100%" height="100%" x="0%" y="0%" filterUnits="objectBoundingBox">
   <feColorMatrix in="SourceGraphic" type="matrix" values="0 0 0 0 1 0 0 0 0 1 0 0 0 0 1 0 0 0 1 0"/>
  </filter>
  <filter id="alpha-2" width="100%" height="100%" x="0%" y="0%" filterUnits="objectBoundingBox">
   <feColorMatrix in="SourceGraphic" type="matrix" values="0 0 0 0 1 0 0 0 0 1 0 0 0 0 1 0 0 0 1 0"/>
  </filter>
  <mask id="mask0-9">
   <g style="filter:url(#alpha-2)" filter="url(#alpha)">
    <rect style="fill:rgb(0%,0%,0%);fill-opacity:0.101961" width="36" height="36" x="0" y="0"/>
   </g>
  </mask>
  <clipPath id="clip1-1">
   <rect width="36" height="36" x="0" y="0"/>
  </clipPath>
  <g id="surface5-2" clip-path="url(#clip1-1)">
   <path d="M 12 3.75 C 11.167969 3.75 10.5 4.417969 10.5 5.25 L 10.5 6 C 10.5 5.167969 11.167969 4.5 12 4.5 L 13.5 4.5 C 14.332031 4.5 15 5.167969 15 6 L 15 5.25 C 15 4.417969 14.332031 3.75 13.5 3.75 Z M 12 3.75" style="fill:rgb(100%,100%,100%)"/>
  </g>
  <mask id="mask1-2">
   <g style="filter:url(#alpha-2)" filter="url(#alpha)">
    <rect style="fill:rgb(0%,0%,0%);fill-opacity:0.101961" width="36" height="36" x="0" y="0"/>
   </g>
  </mask>
  <clipPath id="clip2-7">
   <rect width="36" height="36" x="0" y="0"/>
  </clipPath>
  <g id="surface8-0" clip-path="url(#clip2-7)">
   <path d="M 22.5 3.75 C 21.667969 3.75 21 4.417969 21 5.25 L 21 6 C 21 5.167969 21.667969 4.5 22.5 4.5 L 24 4.5 C 24.832031 4.5 25.5 5.167969 25.5 6 L 25.5 5.25 C 25.5 4.417969 24.832031 3.75 24 3.75 Z M 22.5 3.75" style="fill:rgb(100%,100%,100%)"/>
  </g>
  <mask id="mask3-0">
   <g style="filter:url(#alpha-2)" filter="url(#alpha)">
    <rect style="fill:rgb(0%,0%,0%);fill-opacity:0.2" width="36" height="36" x="0" y="0"/>
   </g>
  </mask>
  <clipPath id="clip4-6">
   <rect width="36" height="36" x="0" y="0"/>
  </clipPath>
  <g id="surface14-2" clip-path="url(#clip4-6)">
   <path d="M 18 18 L 18 22.5 L 22.5 22.5 L 18 30 L 18 25.5 L 13.5 25.5 Z M 18 18" style="fill:rgb(0%,0%,0%)"/>
  </g>
 </defs>
 <g transform="matrix(0.08433145,0,0,0.08433145,1.8083616,1.4142937)">
  <g transform="matrix(11.538462,0,0,11.538462,-15.692316,-20.019239)">
   <path style="fill:#b5c2cc" d="m 12,3.75 h 1.5 c 0.828125,0 1.5,0.671875 1.5,1.5 v 9 c 0,0.828125 -0.671875,1.5 -1.5,1.5 H 12 c -0.828125,0 -1.5,-0.671875 -1.5,-1.5 v -9 c 0,-0.828125 0.671875,-1.5 1.5,-1.5 z m 0,0"/>
   <path style="fill:#b5c2cc" d="M 22.5,3.75 H 24 c 0.828125,0 1.5,0.671875 1.5,1.5 v 9 c 0,0.828125 -0.671875,1.5 -1.5,1.5 h -1.5 c -0.828125,0 -1.5,-0.671875 -1.5,-1.5 v -9 c 0,-0.828125 0.671875,-1.5 1.5,-1.5 z m 0,0"/>
   <path d="m 8.25,14.25 h 19.5 c 0.828125,0 1.5,0.671875 1.5,1.5 v 15 c 0,0.828125 -0.671875,1.5 -1.5,1.5 H 8.25 c -0.828125,0 -1.5,-0.671875 -1.5,-1.5 v -15 c 0,-0.828125 0.671875,-1.5 1.5,-1.5 z m 0,0"/>
   <use width="100%" height="100%" x="0" y="0" mask="url(#mask0-9)" xlink:href="#surface5-2"/>
   <use width="100%" height="100%" x="0" y="0" mask="url(#mask1-2)" xlink:href="#surface8-0"/>
   <use width="100%" height="100%" x="0" y="0" mask="url(#mask3-0)" xlink:href="#surface14-2"/>
   <path style="fill:#ffffff" d="m 18,17.25 v 4.5 h 4.5 l -4.5,7.5 v -4.5 h -4.5 z m 0,0"/>
  </g>
  <path d="m 62.192871,324.28858 v 28.5 c 0,9.55528 7.751839,17.30712 17.307129,17.30712 h 225 c 9.55528,0 17.30713,-7.75184 17.30713,-17.30712 v -28.5 c 0,9.55528 -7.75186,17.30712 -17.30713,17.30712 h -225 c -9.555289,0 -17.307129,-7.75184 -17.307129,-17.30712 z" style="fill:#808080"/>
 </g>
</svg>

<svg xmlns="http://www.w3.org/2000/svg" xmlns:xlink="http://www.w3.org/1999/xlink" width="36pt" height="36pt" version="1.1" viewBox="0 0 36 36">
 <defs>
  <filter id="alpha" width="100%" height="100%" x="0%" y="0%" filterUnits="objectBoundingBox">
   <feColorMatrix in="SourceGraphic" type="matrix" values="0 0 0 0 1 0 0 0 0 1 0 0 0 0 1 0 0 0 1 0"/>
  </filter>
  <mask id="mask0">
   <g filter="url(#alpha)">
    <rect width="36" height="36" x="0" y="0" style="fill:rgb(0%,0%,0%);fill-opacity:0.101961"/>
   </g>
  </mask>
  <clipPath id="clip1">
   <rect width="36" height="36" x="0" y="0"/>
  </clipPath>
  <g id="surface5" clip-path="url(#clip1)">
   <path style="fill:rgb(100%,100%,100%)" d="M 12 3.75 C 11.167969 3.75 10.5 4.417969 10.5 5.25 L 10.5 6 C 10.5 5.167969 11.167969 4.5 12 4.5 L 13.5 4.5 C 14.332031 4.5 15 5.167969 15 6 L 15 5.25 C 15 4.417969 14.332031 3.75 13.5 3.75 Z M 12 3.75"/>
  </g>
  <mask id="mask1">
   <g filter="url(#alpha)">
    <rect width="36" height="36" x="0" y="0" style="fill:rgb(0%,0%,0%);fill-opacity:0.101961"/>
   </g>
  </mask>
  <clipPath id="clip2">
   <rect width="36" height="36" x="0" y="0"/>
  </clipPath>
  <g id="surface8" clip-path="url(#clip2)">
   <path style="fill:rgb(100%,100%,100%)" d="M 22.5 3.75 C 21.667969 3.75 21 4.417969 21 5.25 L 21 6 C 21 5.167969 21.667969 4.5 22.5 4.5 L 24 4.5 C 24.832031 4.5 25.5 5.167969 25.5 6 L 25.5 5.25 C 25.5 4.417969 24.832031 3.75 24 3.75 Z M 22.5 3.75"/>
  </g>
  <mask id="mask2">
   <g filter="url(#alpha)">
    <rect width="36" height="36" x="0" y="0" style="fill:rgb(0%,0%,0%);fill-opacity:0.2"/>
   </g>
  </mask>
  <clipPath id="clip3">
   <rect width="36" height="36" x="0" y="0"/>
  </clipPath>
  <g id="surface11" clip-path="url(#clip3)">
   <path style="fill:rgb(0%,0%,0%)" d="M 6.75 30.75 L 6.75 31.5 C 6.75 32.332031 7.417969 33 8.25 33 L 27.75 33 C 28.582031 33 29.25 32.332031 29.25 31.5 L 29.25 30.75 C 29.25 31.582031 28.582031 32.25 27.75 32.25 L 8.25 32.25 C 7.417969 32.25 6.75 31.582031 6.75 30.75 Z M 6.75 30.75"/>
  </g>
  <mask id="mask3">
   <g filter="url(#alpha)">
    <rect width="36" height="36" x="0" y="0" style="fill:rgb(0%,0%,0%);fill-opacity:0.2"/>
   </g>
  </mask>
  <clipPath id="clip4">
   <rect width="36" height="36" x="0" y="0"/>
  </clipPath>
  <g id="surface14" clip-path="url(#clip4)">
   <path style="fill:rgb(0%,0%,0%)" d="M 18 18 L 18 22.5 L 22.5 22.5 L 18 30 L 18 25.5 L 13.5 25.5 Z M 18 18"/>
  </g>
 </defs>
 <g>
  <path style="fill:rgb(71.764706%,71.764706%,71.764706%)" d="M 12 3.75 L 13.5 3.75 C 14.328125 3.75 15 4.421875 15 5.25 L 15 14.25 C 15 15.078125 14.328125 15.75 13.5 15.75 L 12 15.75 C 11.171875 15.75 10.5 15.078125 10.5 14.25 L 10.5 5.25 C 10.5 4.421875 11.171875 3.75 12 3.75 Z M 12 3.75"/>
  <path style="fill:rgb(71.764706%,71.764706%,71.764706%)" d="M 22.5 3.75 L 24 3.75 C 24.828125 3.75 25.5 4.421875 25.5 5.25 L 25.5 14.25 C 25.5 15.078125 24.828125 15.75 24 15.75 L 22.5 15.75 C 21.671875 15.75 21 15.078125 21 14.25 L 21 5.25 C 21 4.421875 21.671875 3.75 22.5 3.75 Z M 22.5 3.75"/>
  <path style="fill:rgb(35.686275%,35.686275%,35.686275%)" d="M 8.25 14.25 L 27.75 14.25 C 28.578125 14.25 29.25 14.921875 29.25 15.75 L 29.25 30.75 C 29.25 31.578125 28.578125 32.25 27.75 32.25 L 8.25 32.25 C 7.421875 32.25 6.75 31.578125 6.75 30.75 L 6.75 15.75 C 6.75 14.921875 7.421875 14.25 8.25 14.25 Z M 8.25 14.25"/>
  <use mask="url(#mask0)" xlink:href="#surface5"/>
  <use mask="url(#mask1)" xlink:href="#surface8"/>
  <use mask="url(#mask2)" xlink:href="#surface11"/>
  <use mask="url(#mask3)" xlink:href="#surface14"/>
  <path style="fill:rgb(89.411765%,89.411765%,89.411765%)" d="M 18 17.25 L 18 21.75 L 22.5 21.75 L 18 29.25 L 18 24.75 L 13.5 24.75 Z M 18 17.25"/>
 </g>
</svg>
